img/vk_b.svg

<svg width="100%" height="100%" viewBox="0 0 88 88" fill="none" xmlns="http://www.w3.org/2000/svg">
<rect x="1.98169" y="2.14502" width="84.2899" height="84.2899" fill="black" stroke="black" stroke-width="3"/>
<path d="M52.0275 43.0633C56.1155 42.4733 59.3186 40.1553 59.3186 36.2358C59.3186 31.642 55.2726 28.6919 49.4988 28.6919H30.1121V58.1934H49.4566C56.242 58.1934 60.3722 55.3696 60.3722 50.3965C60.3722 45.9713 57.2113 43.5691 52.0275 43.0633ZM33.3151 31.2206H49.3302C52.9968 31.2206 56.1155 33.075 56.1155 36.573C56.1155 40.0289 52.9968 41.9676 49.3302 41.9676H33.3151V31.2206ZM49.1195 55.6647H33.3151V44.4541H49.5409C53.8819 44.4541 57.1692 45.9292 57.1692 49.9751C57.1692 54.021 53.8819 55.6647 49.1195 55.6647Z" fill="white"/>
</svg>

<svg viewBox="0 0 88 88" fill="none" xmlns="http://www.w3.org/2000/svg"><path fill="#000" stroke="#000" stroke-width="3" d="M1.982 2.145h84.29v84.29H1.982z"/><path d="M52.028 43.063c4.087-.59 7.29-2.908 7.29-6.827 0-4.594-4.045-7.544-9.82-7.544H30.113v29.501h19.345c6.785 0 10.915-2.823 10.915-7.796 0-4.426-3.16-6.828-8.344-7.334zM33.315 31.221H49.33c3.667 0 6.785 1.854 6.785 5.352 0 3.456-3.118 5.395-6.785 5.395H33.315V31.22zM49.12 55.665H33.315v-11.21h16.226c4.34 0 7.628 1.474 7.628 5.52 0 4.046-3.287 5.69-8.05 5.69z" fill="#fff"/></svg>
